src/sources/forus-webshop/resources/_webshop-common/assets/img/icon-search/products.svg

<svg width="16" height="16" viewBox="0 0 16 16" fill="none" xmlns="http://www.w3.org/2000/svg">
<path d="M8.00015 2.4483C8.00015 2.76982 7.93682 3.08819 7.81378 3.38524C7.69074 3.68228 7.51039 3.95218 7.28304 4.17953C7.05569 4.40687 6.78579 4.58721 6.48874 4.71025C6.1917 4.83329 5.87333 4.89661 5.55181 4.89661C4.90248 4.8966 4.27975 4.63866 3.8206 4.17951C3.36146 3.72036 3.10352 3.09763 3.10352 2.4483C3.10352 1.79897 3.36146 1.17624 3.8206 0.717096C4.27975 0.257951 4.90248 3.83593e-06 5.55181 2.63661e-10C5.87332 -4.7181e-06 6.1917 0.0633189 6.48874 0.186355C6.78579 0.309392 7.05569 0.489732 7.28304 0.717078C7.51039 0.944424 7.69073 1.21432 7.81378 1.51137C7.93682 1.80841 8.00015 2.12678 8.00015 2.4483Z" fill="#ABD2CA"/>
<path d="M12.8966 2.4483C12.8966 3.09763 12.6386 3.72036 12.1795 4.17951C11.7204 4.63866 11.0976 4.8966 10.4483 4.89661C9.79896 4.8966 9.17623 4.63866 8.71709 4.17951C8.25794 3.72036 8 3.09763 8 2.4483C8 1.79897 8.25795 1.17624 8.71709 0.717096C9.17623 0.257951 9.79896 3.83567e-06 10.4483 0C11.0976 3.83567e-06 11.7203 0.257951 12.1795 0.717096C12.6386 1.17624 12.8966 1.79897 12.8966 2.4483Z" fill="#ABD2CA"/>
<path d="M7.99945 1.49219C7.25098 1.49219 6.64845 2.09473 6.64845 2.84318V3.23509H9.35041V2.84318C9.35041 2.09473 8.74787 1.49219 7.99945 1.49219ZM1.33301 7.26698V14.6667C1.33301 15.4054 1.92763 16 2.66628 16H13.3326C14.0712 16 14.6658 15.4054 14.6658 14.6667V7.26698H1.33301Z" fill="#0A7D67"/>
<path d="M1.33328 3.04248H14.6661C15.4048 3.04248 15.9994 3.63713 15.9994 4.37576V6.03341C15.9994 6.77205 15.4048 7.36669 14.6661 7.36669H1.33328C0.59464 7.36669 0 6.77205 0 6.03341V4.37576C0 3.63713 0.59464 3.04248 1.33328 3.04248Z" fill="#33B69B"/>
<path opacity="0.5" d="M6.64844 3.67554V15.9996H9.3504V3.67554H6.64844Z" fill="white"/>
<path opacity="0.75" d="M6.64844 3.04236V7.36669H9.3504V3.04236H6.64844Z" fill="white"/>
</svg>

<svg width="16" height="16" fill="none" xmlns="http://www.w3.org/2000/svg">
    <path d="M8 2.448a2.448 2.448 0 1 1-4.897 0 2.448 2.448 0 0 1 4.897 0Z" fill="#ABD2CA" class="svg_fill_light"/>
    <path d="M12.897 2.448a2.449 2.449 0 1 1-4.897 0 2.449 2.449 0 0 1 4.897 0Z" fill="#ABD2CA" class="svg_fill_light"/>
    <path d="M8 1.492c-.749 0-1.352.603-1.352 1.351v.392H9.35v-.392c0-.748-.602-1.35-1.35-1.35ZM1.332 7.267v7.4A1.33 1.33 0 0 0 2.666 16h10.667a1.33 1.33 0 0 0 1.333-1.333v-7.4H1.333Z" fill="#0A7D67" class="svg_fill_dark"/>
    <path d="M1.333 3.042h13.333A1.33 1.33 0 0 1 16 4.376v1.657a1.33 1.33 0 0 1-1.333 1.334H1.333A1.33 1.33 0 0 1 0 6.033V4.376a1.33 1.33 0 0 1 1.333-1.334Z" fill="#33B69B" class="svg_fill_medium"/>
    <path opacity=".5" d="M6.648 3.676V16H9.35V3.676H6.648Z" fill="#fff"/>
    <path opacity=".75" d="M6.648 3.042v4.325H9.35V3.042H6.648Z" fill="#fff"/>
</svg>
